svgs/thin/ruler-horizontal.svg

<svg xmlns="http://www.w3.org/2000/svg" viewBox="0 0 640 512"><!--! Font Awesome Pro 6.6.0 by @fontawesome - https://fontawesome.com License - https://fontawesome.com/license (Commercial License) Copyright 2024 Fonticons, Inc. --><path d="M16 320c0 26.5 21.5 48 48 48l512 0c26.5 0 48-21.5 48-48l0-128c0-26.5-21.5-48-48-48l-56 0 0 80c0 4.4-3.6 8-8 8s-8-3.6-8-8l0-80-80 0 0 48 0 32c0 4.4-3.6 8-8 8s-8-3.6-8-8l0-32 0-48-80 0 0 80c0 4.4-3.6 8-8 8s-8-3.6-8-8l0-80-80 0 0 80c0 4.4-3.6 8-8 8s-8-3.6-8-8l0-80-80 0 0 80c0 4.4-3.6 8-8 8s-8-3.6-8-8l0-80-56 0c-26.5 0-48 21.5-48 48l0 128zM512 128l64 0c35.3 0 64 28.7 64 64l0 128c0 35.3-28.7 64-64 64L64 384c-35.3 0-64-28.7-64-64L0 192c0-35.3 28.7-64 64-64l160 0 96 0 96 0 96 0z"/></svg>

<svg xmlns="http://www.w3.org/2000/svg" viewBox="0 0 640 512"><!--! Font Awesome Pro 6.4.2 by @fontawesome - https://fontawesome.com License - https://fontawesome.com/license (Commercial License) Copyright 2023 Fonticons, Inc. --><path d="M16 320c0 26.5 21.5 48 48 48l512 0c26.5 0 48-21.5 48-48V192c0-26.5-21.5-48-48-48H520v80c0 4.4-3.6 8-8 8s-8-3.6-8-8V144l-80 0v48 32c0 4.4-3.6 8-8 8s-8-3.6-8-8V192 144H328v80c0 4.4-3.6 8-8 8s-8-3.6-8-8V144H232v80c0 4.4-3.6 8-8 8s-8-3.6-8-8V144l-80 0v80c0 4.4-3.6 8-8 8s-8-3.6-8-8V144l-56 0c-26.5 0-48 21.5-48 48l0 128zM512 128h64c35.3 0 64 28.7 64 64V320c0 35.3-28.7 64-64 64L64 384c-35.3 0-64-28.7-64-64V192c0-35.3 28.7-64 64-64H224h96 96 96z"/></svg>
